X:390
T: Sail Around the Rocks
S: Darley & McCall Collection
Z: B.Black
L: 1/8
M: 9/8
R: slipjig
K: G
G3 G2A B3|G3 G2B AFD|G3 G2A B3|A3 A2B cBA :|
g3 g2e d3|g3 g2e dBA|g3 g2e d3|c2B c2d e2f|
g3 g2e d3|g3 g2e dBA|g2a g2e dBG|c2B A2B c2A||
